DE/EBO/Lf7_80_Tafel.svg

<?xml version="1.0" encoding="UTF-8" standalone="no"?>
<svg width="218px" height="279px" viewBox="0 0 218 279" version="1.1" xmlns="http://www.w3.org/2000/svg" xmlns:xlink="http://www.w3.org/1999/xlink" xmlns:sketch="http://www.bohemiancoding.com/sketch/ns">
    <title>Slice 1</title>
    <description>Created with Sketch (http://www.bohemiancoding.com/sketch)</description>
    <defs></defs>
    <g id="Page-1" stroke="none" stroke-width="1" fill="none" fill-rule="evenodd" sketch:type="MSPage">
        <g id="Lf7_180_Tafel" sketch:type="MSLayerGroup" transform="translate(6.000000, 7.000000)">
            <g id="layer5" transform="translate(0.000000, -0.009990)" stroke="#000000" stroke-width="12" fill="#FFFFFF" sketch:type="MSShapeGroup">
                <rect id="rect4663" x="0" y="0" width="205.06096" height="265.6701"></rect>
            </g>
            <g id="layer6" transform="translate(64.000000, 41.490010)" fill="#000000" sketch:type="MSShapeGroup">
                <g id="g3839" transform="translate(-0.091624, -0.487861)">
                    <path d="M38.9353744,-0.0334 C16.6810344,-0.0334 0.48139436,14.922117 0.12287436,38.7791 C0.11257436,38.7806 0.09167436,38.7791 0.09167436,38.7791 L0.09167436,59.1541 C0.09167436,68.15586 4.01699436,78.78113 11.4979244,86.06035 C4.01694436,93.40207 0.09162436,103.58984 0.09162436,112.5916 L0.12282436,143.81035 C0.14662436,167.6636 16.6844644,182.62285 38.9353244,182.62285 C59.7180244,182.62285 76.9978244,167.99839 76.9978244,143.81035 L76.9978244,112.5916 C76.9978244,103.58984 72.2081544,91.91693 65.5796944,86.04304 C73.6223644,78.22461 76.9978244,67.93803 76.9978244,58.93627 L76.9978244,38.7791 C76.9978244,14.59108 59.7180244,-0.0334 38.9353244,-0.0334 L38.9353744,-0.0334 Z M38.1541244,22.9666 C47.4469344,22.8416 54.6853744,28.72743 54.6853744,38.2791 L54.6853744,58.5291 C54.6853744,66.66803 48.6936044,74.80808 38.5603744,74.81035 C28.4113044,74.81235 22.3792844,66.6756 22.4041244,58.5291 L22.4666244,38.0291 C22.4955244,28.556034 30.7073644,23.06677 38.1541244,22.9666 L38.1541244,22.9666 Z M38.5603744,97.18535 C47.9434844,97.18535 54.6853744,104.77146 54.6853744,113.5291 L54.6853744,144.31035 C54.6853744,153.86202 47.4469344,159.7166 38.1541244,159.5916 C30.7073644,159.49143 22.4857044,154.03344 22.4666244,144.56035 L22.4041244,113.5291 C22.3864244,104.71932 29.3823144,97.18535 38.5603744,97.18535 L38.5603744,97.18535 Z" id="path3830"></path>
                </g>
            </g>
        </g>
    </g>
</svg>

<?xml version="1.0" encoding="UTF-8" standalone="no"?>
<!-- Created with Inkscape (http://www.inkscape.org/) -->

<svg
   xmlns:sketch="http://www.bohemiancoding.com/sketch/ns"
   xmlns:dc="http://purl.org/dc/elements/1.1/"
   xmlns:cc="http://creativecommons.org/ns#"
   xmlns:rdf="http://www.w3.org/1999/02/22-rdf-syntax-ns#"
   xmlns:svg="http://www.w3.org/2000/svg"
   xmlns="http://www.w3.org/2000/svg"
   xmlns:sodipodi="http://sodipodi.sourceforge.net/DTD/sodipodi-0.dtd"
   xmlns:inkscape="http://www.inkscape.org/namespaces/inkscape"
   width="217.07001"
   height="277.67001"
   id="svg2"
   version="1.1"
   inkscape:version="0.48.5 r10040"
   sodipodi:docname="Lf7_50_Tafel.svg">
  <defs
     id="defs4" />
  <sodipodi:namedview
     id="base"
     pagecolor="#ffffff"
     bordercolor="#666666"
     borderopacity="1.0"
     inkscape:pageopacity="0.0"
     inkscape:pageshadow="2"
     inkscape:zoom="1.4"
     inkscape:cx="140.47299"
     inkscape:cy="139.05966"
     inkscape:document-units="px"
     inkscape:current-layer="layer6"
     showgrid="false"
     inkscape:window-width="1920"
     inkscape:window-height="1028"
     inkscape:window-x="1366"
     inkscape:window-y="30"
     inkscape:window-maximized="1" />
  <metadata
     id="metadata7">
    <rdf:RDF>
      <cc:Work
         rdf:about="">
        <dc:format>image/svg+xml</dc:format>
        <dc:type
           rdf:resource="http://purl.org/dc/dcmitype/StillImage" />
        <dc:title></dc:title>
      </cc:Work>
    </rdf:RDF>
  </metadata>
  <g
     inkscape:label="Ebene 1"
     inkscape:groupmode="layer"
     id="layer1"
     transform="translate(0,-774.69217)"
     style="display:inline" />
  <g
     inkscape:groupmode="layer"
     id="layer5"
     inkscape:label="schwarz"
     transform="translate(0,102.99001)">
    <rect
       style="fill:#ffffff;fill-opacity:1;stroke:#000000;stroke-width:12;stroke-linecap:round;stroke-linejoin:round;stroke-miterlimit:4;stroke-opacity:1;stroke-dasharray:none"
       id="rect4663"
       width="205.06096"
       height="265.6701"
       x="6"
       y="-96.990112" />
  </g>
  <g
     inkscape:groupmode="layer"
     id="layer6"
     inkscape:label="Ziffer"
     transform="translate(0,102.99001)">
    <g
       id="layer6-9"
       transform="translate(70,-55.829986)"
       sketch:type="MSShapeGroup"
       style="fill:#000000;stroke:none">
      <g
         id="g3839"
         transform="translate(-0.091624,-0.487861)">
        <path
           d="m 38.935374,-0.0334 c -22.25434,0 -38.45397964,14.955517 -38.81249964,38.8125 -0.0103,0.0015 -0.0312,0 -0.0312,0 l 0,20.375 c 0,9.00176 3.92532004,19.62703 11.40624964,26.90625 C 4.0169444,93.40207 0.09162436,103.58984 0.09162436,112.5916 l 0.0312,31.21875 c 0.0238,23.85325 16.56163964,38.8125 38.81249964,38.8125 20.7827,0 38.0625,-14.62446 38.0625,-38.8125 l 0,-31.21875 c 0,-9.00176 -4.78967,-20.67467 -11.41813,-26.54856 8.04267,-7.81843 11.41813,-18.10501 11.41813,-27.10677 l 0,-20.15717 c 0,-24.18802 -17.2798,-38.8125 -38.0625,-38.8125 l 5e-5,0 z m -0.78125,23 c 9.29281,-0.125 16.53125,5.76083 16.53125,15.3125 l 0,20.25 c 0,8.13893 -5.99177,16.27898 -16.125,16.28125 -10.14907,0.002 -16.18109,-8.13475 -16.15625,-16.28125 l 0.0625,-20.5 c 0.0289,-9.473066 8.24074,-14.96233 15.6875,-15.0625 l 0,0 z m 0.40625,74.21875 c 9.38311,0 16.125,7.58611 16.125,16.34375 l 0,30.78125 c 0,9.55167 -7.23844,15.40625 -16.53125,15.28125 -7.44676,-0.10017 -15.66842,-5.55816 -15.6875,-15.03125 l -0.0625,-31.03125 c -0.0177,-8.80978 6.97819,-16.34375 16.15625,-16.34375 l 0,0 z"
           id="path3830"
           inkscape:connector-curvature="0" />
      </g>
    </g>
  </g>
</svg>
